X: 10483
T: MR. WILL'S FAVOURITE
%R: reel
B: W. Hamilton "Universal Tune-Book" Vol. 1 Glasgow 1844 p.48 #3
S: http://imslp.org/wiki/Hamilton's_Universal_Tune-Book_(Various)
Z: 2016 John Chambers <jc:trillian.mit.edu>
M: C
L: 1/8
K: D
%%stretchstaff 0
% - - - - - - - - - - - - - - - - - - - - - - - - -
d/e/ |\
fdAF GBA(d/e/) | fdAF GEE(d/e/) |\
fdAF GBAd | Bgf>e fdd :: (c/d/) |\
eAfA gAfA | eAfA gee(d/e/) |\
fdAF GBAd | Bgf>e fdd :|
% - - - - - - - - - - - - - - - - - - - - - - - - -

%%sep 1 1 500
%%sep 1 1 500

